X:7839
T:Dagsens auga
C:anon., words: Elias Blix
O:Norway
A:Majavatn
R:Hymn
Z:Transcribed by Frank Nordberg - http://www.musicaviva.com
F:http://abc.musicaviva.com/tunes/norway/dagsens-auga/dagsens-auga-1.abc
M:6/4
L:1/8
Q:1/4=130
K:C
G2A2F2 E2G2c2|F3GA2 G6|c3d ec d3c BA|B2c4-c4z2:|
w:Dag--sens au--ga slok--nar ut, kveld-sol ned i ves--ter_ gla-der._
w:Skug--gen stig_ fr\aa dal_ til nut, myrk-ret sig-rar al--le_ sta-der._
f3e dc d3c de|f3e dc d6|e3d cB A3B cA|G6-G4 z2||
w:Je--sus,_ hjar--tans_ sol_ og_ skatt, Je-sus, ver mitt ljos_ i_ natt.
W:
W:Dagsens auga sloknar ut,
W:kveldsol ned i vester glader.
W:Skuggen stig fr\aa dal til nut,
W:myrkret sigrar alle stader.
W:Jesus, hjartans sol og skatt,
W:Jesus, ver mitt ljos i natt.
W:
W:
W:  From Musica Viva - http://www.musicaviva.com
W:  the Internet center for free sheet music downloads.

